X:1
T:The Quilting Party
T:The Quilting Party
T:Seeing Nellie Home
%%score [ 1 2 3 4 ]
L:1/8
Q:1/4=68
M:2/4
K:Bb
V:1 treble-8 nm="Soprano"
V:2 treble-8 nm="Alto"
V:3 bass nm="Tenor"
V:4 bass nm="Bass"
V:1
 B3/2 c/ | d3 d | e2 d2 | d d3- | d2 d3/2 d/ | e3 e | e2 e2 | d4- | d z B3/2 c/ | d2 d2 | f2 d2 | %11
w: In the|sky the|bright stars|glitter- ed,|_ On the|bank the|pale moon|shone|_ And 't~was|from Aunt|Din- ah's|
 e e3 | e e e e | e3 e | e e3 | d4- | d z B3/2 c/ | d d3 | e e3 | (d2 f2 | d2) B3/2 B/ | e3 e | %22
w: quilt- ing|par- ty I was|see- ing|Nel- lie|home,|_ I was|see- ing|Nel- lie|home, _|_ I was|see- ing|
 e e3 | d4- | d z B3/2 c/ | d2 d2 | f2 d2 | e e3 | =e e e e | f3 =e | _e e3 | d4- | d z |] %33
w: Nel- lie|home.|_ And 't~was|from Aunt|Din- ah's|quilt- ing|par- ty I was|see- ing|Nel- lie|home.|_|
V:2
 D3/2 E/ | F3 F | G2 F2 | F B3- | B2 B3/2 B/ | B3 A | G2 B2 | F4- | F z D3/2 E/ | F2 B2 | d2 B2 | %11
w: In the|sky the|bright stars|glitter- ed,|_ On the|bank the|pale moon|shone|_ And 't~was|from Aunt|Din- ah's|
 c B3 | G B B B | A3 B | c c3 | B4- | B z D3/2 E/ | F F3 | G G3 | (F2 B2 | F2) B3/2 B/ | B3 A | %22
w: quilt- ing|par- ty I was|see- ing|Nel- lie|home,|_ I was|see- ing|Nel- lie|home, _|_ I was|see- ing|
 G B3 | F4- | F z D3/2 E/ | F2 B2 | d2 B2 | c B3 | G B B B | A3 B | c c3 | B4- | B z |] %33
w: Nel- lie|home.|_ And 't~was|from Aunt|Din- ah's|quilt- ing|par- ty I was|see- ing|Nel- lie|home.|_|
V:3
 B,3/2 B,/ | B,3 B, | B,2 B,2 | B, F,3- | F,2 F,3/2 F,/ | G,3 A, | B,2 G,2 | B,4- | %8
w: In the|sky the|bright stars|glitter- ed,|_ On the|bank the|pale moon|shone|
 B, z B,3/2 B,/ | B,2 B,2 | _A,2 A,2 | G, G,3 | B, G, G, G, | F,3 G, | A, A,3 | F,4- | %16
w: _ And 't~was|from Aunt|Din- ah's|quilt- ing|par- ty I was|see- ing|Nel- lie|home,|
 F, z B,3/2 B,/ | B, B,3 | B, B,3 | (B,2 F,2 | B,2) B,3/2 B,/ | G,3 A, | B, G,3 | B,4- | %24
w: _ I was|see- ing|Nel- lie|home, _|_ I was|see- ing|Nel- lie|home.|
 B, z B,3/2 B,/ | B,2 B,2 | _A,2 A,2 | G, G,3 | B, G, G, G, | F,3 G, | A, A,3 | F,4- | F, z |] %33
w: _ And 't~was|from Aunt|Din- ah's|quilt- ing|par- ty I was|see- ing|Nel- lie|home.|_|
V:4
 B,,3/2 B,,/ | B,,3 B,, | B,,2 B,,2 | B,, B,,3- | B,,2 B,,3/2 B,,/ | E,3 E, | E,2 E,2 | B,,4- | %8
w: In the|sky the|bright stars|glitter- ed,|_ On the|bank the|pale moon|shone|
 B,, z B,,3/2 B,,/ | B,,2 B,,2 | B,,2 B,,2 | E, E,3 | E, E, C, C, | F,3 C, | F, F,3 | B,,4- | %16
w: _ And 't~was|from Aunt|Din- ah's|quilt- ing|par- ty I was|see- ing|Nel- lie|home,|
 B,, z B,,3/2 B,,/ | B,, B,,3 | E, E,3 | (B,,4 | B,,2) B,,3/2 B,,/ | E,3 E, | E, E,3 | B,,4- | %24
w: _ I was|see- ing|Nel- lie|home,|_ I was|see- ing|Nel- lie|home.|
 B,, z B,,3/2 B,,/ | B,,2 B,,2 | B,,2 B,,2 | E, E,3 | C, C, C, C, | F,3 C, | F, F,3 | B,,4- | %32
w: _ And 't~was|from Aunt|Din- ah's|quilt- ing|par- ty I was|see- ing|Nel- lie|home.|
 B,, z |] %33
w: _|

